X: 73
T: Pollonesse #73
M: 3/4
L: 1/16
K: G
Q:120
g4 bgaf g4|D2dB D2cA B2G2|D2A2 A6 B2|c2B2 c2A2 B2G2|A2b2 g4 f4|
D2f2 f4 g4|a2g2 a2f2 g2e2|edef gBcd eABc|BAGF G4 G,4:|
d4fde^c d4|A2af A2ge f2d2|A2b2 a4 g4|fed^c d4 D4|g2d=f e6 d2|
d2Bd c6 B2|A2ed cBAG F2ED|D2A2A6 B2|c2B2 c2A2 B2G2|
D2f2 f6 g2|a2g2 a2f2 g2e2|edef gBcd eABc|BAGF G8:|

